coffee-outline.svg

<svg fill="currentColor" viewBox="0 0 24 24"><path d="M2 21v-2h18v2zM20 8V5h-2v3zm0-5a2 2 0 0 1 2 2v3a2 2 0 0 1-2 2h-2v3a4 4 0 0 1-4 4H8a4 4 0 0 1-4-4V3zm-4 2H6v8a2 2 0 0 0 2 2h6a2 2 0 0 0 2-2z"/></svg>

<svg  viewBox="0 0 24 24" fill="currentColor"><path  d="M2,21V19H20V21H2M20,8V5H18V8H20M20,3A2,2 0 0,1 22,5V8A2,2 0 0,1 20,10H18V13A4,4 0 0,1 14,17H8A4,4 0 0,1 4,13V3H20M16,5H6V13A2,2 0 0,0 8,15H14A2,2 0 0,0 16,13V5Z"/></svg>
